icons/organ-trasplant-cooler.svg

<?xml version="1.0" encoding="UTF-8"?><svg xmlns="http://www.w3.org/2000/svg" viewBox="0 0 50 50"><g id="uuid-609ec4b7-fb6b-41c5-bd58-6667e6a97e2b"><path d="M24.62,44.93c.09,.09,.22,.15,.35,.15h0c.13,0,.26-.06,.36-.15l7.5-7.81c2.26-2.26,2.26-5.93,0-8.19s-5.6-2.26-8.02-.15c-1.09-.95-2.42-1.49-3.79-1.55-1.55-.06-3.07,.54-4.23,1.69-2.37,2.37-2.23,5.96,.33,8.52l7.48,7.48Zm-7.11-15.3c.91-.91,2.08-1.4,3.3-1.4,.06,0,.12,0,.18,0,1.27,.05,2.5,.61,3.48,1.58,.09,.09,.22,.15,.35,.15s.26-.05,.35-.15c2.04-2.04,5.03-2.11,6.96-.18,1.87,1.87,1.87,4.91,0,6.78l-7.16,7.45-7.12-7.12c-2.16-2.16-2.3-5.15-.33-7.11Z"/><path d="M8.01,3.15H42.02v13.55h1V2.65c0-.28-.22-.5-.5-.5H7.51c-.28,0-.5,.22-.5,.5v14.05h1V3.15Z"/><path d="M21.43,37.1h1.55v1.55c0,.28,.22,.5,.5,.5h2.75c.28,0,.5-.22,.5-.5v-1.55h1.55c.28,0,.5-.22,.5-.5v-2.75c0-.28-.22-.5-.5-.5h-1.55v-1.55c0-.28-.22-.5-.5-.5h-2.75c-.28,0-.5,.22-.5,.5v1.55h-1.55c-.28,0-.5,.22-.5,.5v2.75c0,.28,.22,.5,.5,.5Zm.5-2.75h1.55c.28,0,.5-.22,.5-.5v-1.55h1.75v1.55c0,.28,.22,.5,.5,.5h1.55v1.75h-1.55c-.28,0-.5,.22-.5,.5v1.55h-1.75v-1.55c0-.28-.22-.5-.5-.5h-1.55v-1.75Z"/><path d="M43.37,16.7h-2.17v-2.32c0-2.32-1.89-4.21-4.21-4.21H13.17c-2.32,0-4.21,1.89-4.21,4.21v2.32h-2.33c-.28,0-.5,.22-.5,.5v6.84c0,.28,.22,.5,.5,.5h1.98l1.23,19.15c.16,1.56,.43,4.16,3.1,4.16h23.97c2.67,0,3.02-2.35,3.27-4.11l1.35-19.2h1.83c.28,0,.5-.22,.5-.5v-6.84c0-.28-.22-.5-.5-.5Zm-.5,6.84H7.13v-5.84H42.87v5.84ZM9.96,14.38c0-1.77,1.44-3.21,3.21-3.21h23.82c1.77,0,3.21,1.44,3.21,3.21v2.32H9.96v-2.32Zm29.23,29.25c-.33,2.22-.73,3.22-2.28,3.22H12.94c-1.49,0-1.88-1.1-2.1-3.24l-1.23-19.07h30.93l-1.35,19.09Z"/></g><g id="uuid-8187832a-62fb-4eb8-9730-2f09d59f5fb0"><text transform="translate(-.05 55.09)" font-family="Roboto-Regular, Roboto" font-size="6"><tspan x="0" y="0">o</tspan><tspan x="3.42" y="0" letter-spacing="0em">r</tspan><tspan x="5.4" y="0">gan-t</tspan><tspan x="18.95" y="0" letter-spacing="-.02em">r</tspan><tspan x="20.87" y="0">ansplant-cooler</tspan></text></g></svg>

<svg xmlns="http://www.w3.org/2000/svg" viewBox="0 0 50 50"><g id="bff9b362-77e0-4808-ba9b-64e0d2ace143" data-name="ICONS"><path d="M24.62,44.93a.55.55,0,0,0,.36.15h0a.48.48,0,0,0,.36-.16l7.5-7.81a5.78,5.78,0,0,0-8-8.33A6.23,6.23,0,0,0,21,27.23a5.62,5.62,0,0,0-4.22,1.7c-2.37,2.37-2.23,6,.33,8.52Zm-7.1-15.3a4.63,4.63,0,0,1,3.3-1.4H21a5.2,5.2,0,0,1,3.47,1.59.52.52,0,0,0,.36.14.5.5,0,0,0,.35-.14,4.79,4.79,0,1,1,7,6.59L25,43.86l-7.12-7.12C15.69,34.59,15.55,31.6,17.52,29.63Z"/><path d="M8,3.15H42V16.7h1v-14a.5.5,0,0,0-.5-.5h-35a.51.51,0,0,0-.5.5V16.7H8Z"/><path d="M21.43,37.1H23v1.54a.5.5,0,0,0,.5.5h2.75a.5.5,0,0,0,.5-.5V37.1h1.55a.5.5,0,0,0,.5-.5V33.84a.5.5,0,0,0-.5-.5H26.73V31.79a.5.5,0,0,0-.5-.5H23.48a.5.5,0,0,0-.5.5v1.55H21.43a.51.51,0,0,0-.5.5V36.6A.51.51,0,0,0,21.43,37.1Zm.5-2.76h1.55a.5.5,0,0,0,.5-.5V32.29h1.75v1.55a.5.5,0,0,0,.5.5h1.55V36.1H26.23a.5.5,0,0,0-.5.5v1.54H24V36.6a.5.5,0,0,0-.5-.5H21.93Z"/><path d="M43.37,16.7H41.2V14.38A4.22,4.22,0,0,0,37,10.17H13.17A4.22,4.22,0,0,0,9,14.38V16.7H6.63a.5.5,0,0,0-.5.5V24a.5.5,0,0,0,.5.5h2L9.84,43.69c.16,1.56.43,4.16,3.1,4.16h24c2.68,0,3-2.36,3.28-4.11l1.35-19.2h1.83a.5.5,0,0,0,.5-.5V17.2A.5.5,0,0,0,43.37,16.7Zm-.5,6.84H7.13V17.7H42.87ZM10,14.38a3.21,3.21,0,0,1,3.21-3.21H37a3.21,3.21,0,0,1,3.21,3.21V16.7H10ZM39.19,43.63c-.32,2.23-.73,3.22-2.28,3.22h-24c-1.49,0-1.88-1.1-2.1-3.24L9.61,24.54H40.54Z"/></g><g id="ae36c731-529a-4997-9f32-dc7fe1a309d9" data-name="LABELS"><text transform="translate(-0.05 55.09)" font-size="6" font-family="Roboto-Regular, Roboto">o<tspan x="3.42" y="0" letter-spacing="-0.01em">r</tspan><tspan x="5.4" y="0">gan-t</tspan><tspan x="18.95" y="0" letter-spacing="-0.02em">r</tspan><tspan x="20.87" y="0">ansplant-cooler</tspan></text></g></svg>
